; generated by Slic3r 1.3.1-dev on Mon Oct 11 23:01:25 2021

; Git Commit: (Unknown revision)

; external perimeters extrusion width = 0.55mm (4.37mm^3/s)
; perimeters extrusion width = 0.70mm (11.44mm^3/s)
; infill extrusion width = 0.62mm (13.45mm^3/s)
; solid infill extrusion width = 0.70mm (3.81mm^3/s)
; top solid infill extrusion width = 0.70mm (2.86mm^3/s)
; first layer extrusion width = 0.70mm 
M107

M104 S200 ; set temperature
G28 ; home all axes
G1 Z5 F5000 ; lift nozzle
; Filament gcode
M109 S200 ; set temperature and wait for it to be reached
G21 ; set units to millimeters
G90 ; use absolute coordinates
M82 ; use absolute distances for extrusion
G92 E0
G92 E0
G1 Z0.350 F7800.000
G1 E-2.00000 F2400.00000
G92 E0
G1 X-0.925 Y6.213 F7800.000
G1 E2.00000 F2400.00000
G1 F600
G1 X-1.233 Y6.170 E2.00962
G1 X-3.414 Y5.461 E2.08059
G1 X-5.223 Y4.051 E2.15155
G1 X-6.589 Y1.716 E2.23525
G1 X-6.642 Y1.559 E2.24037
G1 X-6.984 Y-0.709 E2.31134
G1 X-6.532 Y-2.957 E2.38230
G1 X-5.514 Y-4.711 E2.44503
G1 X-5.277 Y-4.998 E2.45655
G1 X-2.455 Y-6.918 E2.56216
G1 X-2.217 Y-6.999 E2.56995
G1 X-0.115 Y-7.341 E2.63582
G1 X0.115 Y-7.341 E2.64297
G1 X2.217 Y-6.999 E2.70885
G1 X2.455 Y-6.918 E2.71663
G1 X5.277 Y-4.998 E2.82224
G1 X5.514 Y-4.711 E2.83376
G1 X6.625 Y-2.704 E2.90472
G1 X6.985 Y-0.439 E2.97568
G1 X6.642 Y1.559 E3.03842
G1 X6.589 Y1.716 E3.04355
G1 X5.494 Y3.732 E3.11451
G1 X3.778 Y5.253 E3.18547
G1 X1.233 Y6.170 E3.26917
G1 X0.925 Y6.213 E3.27879
G1 X-0.925 Y6.213 E3.33605
G1 Z0.650 F7800.000
G1 Z0.950 F7800.000
G1 E1.33605 F2400.00000
G92 E0
G1 X-0.130 Y-0.037 F7800.000
G1 E2.00000 F2400.00000
G1 F600
G1 X-0.121 Y-0.085 E2.00101
G1 X0.121 Y-0.085 E2.00599
G1 X0.130 Y-0.037 E2.00700

G1 F3600
G1 X0.169 Y0.171 E2.01288
G1 X0.117 Y0.288 E2.01644
G1 X-0.000 Y0.358 E2.02024
G1 X-0.117 Y0.288 E2.02403
G1 X-0.169 Y0.171 E2.02759
G1 X-0.130 Y-0.037 E2.03347

M106 S255
G1 Z0.950 F7800.000
G1 F600
G1 Z0.963 X-0.483 Y0.115 E2.03636
G1 Z0.980 X-0.523 Y-0.069 E2.04025
G1 Z0.994 X-0.499 Y-0.219 E2.04337
G1 Z1.020 X-0.368 Y-0.475 E2.04931
G1 Z1.058 X0.059 Y-0.464 E2.05810
G1 Z1.086 X0.366 Y-0.479 E2.06445
G1 Z1.113 X0.499 Y-0.219 E2.07047
G1 Z1.127 X0.523 Y-0.069 E2.07360
G1 Z1.144 X0.483 Y0.115 E2.07748
G1 Z1.156 X0.478 Y0.255 E2.08038
G1 Z1.185 X0.221 Y0.429 E2.08676
G1 Z1.207 X-0.000 Y0.529 E2.09177
G1 Z1.229 X-0.221 Y0.429 E2.09677
G1 Z1.250 X-0.416 Y0.297 E2.10161
G1 Z1.250 F7800.000
G1 F600
G1 Z1.272 X-0.564 Y0.038 E2.10685
G1 Z1.316 X-0.394 Y-0.448 E2.11747
G1 Z1.331 X-0.227 Y-0.499 E2.12107
G1 Z1.340 X-0.120 Y-0.497 E2.12327
G1 Z1.354 X-0.000 Y-0.385 E2.12665
G1 Z1.368 X0.120 Y-0.497 E2.13003
G1 Z1.377 X0.227 Y-0.499 E2.13223
G1 Z1.391 X0.385 Y-0.451 E2.13564
G1 Z1.430 X0.552 Y-0.027 E2.14504
G1 Z1.437 X0.561 Y0.052 E2.14667
G1 Z1.457 X0.504 Y0.285 E2.15161
G1 Z1.476 X0.349 Y0.435 E2.15607
G1 Z1.507 X-0.000 Y0.539 E2.16357
G1 Z1.538 X-0.349 Y0.435 E2.17108
G1 Z1.550 X-0.451 Y0.337 E2.17399
G1 Z1.550 F7800.000
G1 F600
G1 Z1.576 X-0.369 Y0.043 E2.17768
G1 Z1.599 X-0.279 Y-0.087 E2.18093
G1 Z1.641 X-0.000 Y-0.165 E2.18690
G1 Z1.683 X0.279 Y-0.087 E2.19288
G1 Z1.706 X0.369 Y0.043 E2.19613
G1 Z1.732 X0.409 Y0.217 E2.19981
G1 Z1.797 X-0.000 Y0.387 E2.20893
G1 Z1.850 X-0.339 Y0.246 E2.21651
G1 E0.21651 F2400.00000
G92 E0
; Filament-specific end gcode 
;END gcode for filament
M104 S0 ; turn off temperature
G28 X0  ; home X axis
M84     ; disable motors
; material used = 1.55mm (0.011.55cm3)
; total filament cost = 0.00

; avoid_crossing_perimeters = 0
; bed_shape = 0x0,200x0,200x200,0x200
; bed_temperature = 0
; before_layer_gcode = 
; between_objects_gcode = 
; bridge_acceleration = 0
; bridge_fan_speed = 100
; brim_connections_width = 0
; brim_width = 0
; complete_objects = 0
; cooling = 1
; default_acceleration = 0
; disable_fan_first_layers = 3
; duplicate_distance = 6
; end_filament_gcode = "; Filament-specific end gcode \n;END gcode for filament\n"
; end_gcode = M104 S0 ; turn off temperature\nG28 X0  ; home X axis\nM84     ; disable motors\n
; extruder_clearance_height = 20
; extruder_clearance_radius = 20
; extruder_offset = 0x0
; extrusion_axis = E
; extrusion_multiplier = 1
; fan_always_on = 0
; fan_below_layer_time = 60
; filament_colour = #FFFFFF
; filament_cost = 0
; filament_density = 0
; filament_diameter = 3
; filament_max_volumetric_speed = 0
; filament_notes = ""
; filament_settings_id = ""
; first_layer_acceleration = 0
; first_layer_bed_temperature = 0
; first_layer_extrusion_width = 200%
; first_layer_speed = 30
; first_layer_temperature = 200
; gcode_arcs = 0
; gcode_comments = 0
; gcode_flavor = reprap
; has_heatbed = 1
; infill_acceleration = 0
; infill_first = 0
; interior_brim_width = 0
; label_printed_objects = 0
; layer_gcode = 
; max_fan_speed = 100
; max_layer_height = 0.3
; max_print_speed = 80
; max_volumetric_speed = 0
; min_fan_speed = 35
; min_layer_height = 0.15
; min_print_speed = 10
; min_skirt_length = 0
; notes = 
; nozzle_diameter = 0.5
; only_retract_when_crossing_perimeters = 1
; ooze_prevention = 0
; output_filename_format = [input_filename_base].gcode
; perimeter_acceleration = 0
; post_process = 
; pressure_advance = 0
; printer_notes = 
; resolution = 0
; retract_before_travel = 2
; retract_layer_change = 0
; retract_length = 2
; retract_length_toolchange = 10
; retract_lift = 0
; retract_lift_above = 0
; retract_lift_below = 0
; retract_restart_extra = 0
; retract_restart_extra_toolchange = 0
; retract_speed = 40
; skirt_distance = 6
; skirt_height = 1
; skirts = 1
; slowdown_below_layer_time = 5
; spiral_vase = 0
; standby_temperature_delta = -5
; start_filament_gcode = "; Filament gcode\n"
; start_gcode = G28 ; home all axes\nG1 Z5 F5000 ; lift nozzle\n
; temperature = 200
; threads = 8
; toolchange_gcode = 
; travel_speed = 130
; use_firmware_retraction = 0
; use_relative_e_distances = 0
; use_set_and_wait_bed = 0
; use_set_and_wait_extruder = 0
; use_volumetric_e = 0
; vibration_limit = 0
; wipe = 0
; z_offset = 0
; z_steps_per_mm = 0
; adaptive_slicing = 0
; adaptive_slicing_quality = 75%
; dont_support_bridges = 1
; extrusion_width = 0
; first_layer_height = 0.35
; infill_only_where_needed = 0
; interface_shells = 0
; layer_height = 0.3
; match_horizontal_surfaces = 0
; raft_layers = 0
; regions_overlap = 0
; seam_position = aligned
; sequential_print_priority = 0
; support_material = 0
; support_material_angle = 0
; support_material_buildplate_only = 0
; support_material_contact_distance = 0.2
; support_material_enforce_layers = 0
; support_material_extruder = 1
; support_material_extrusion_width = 0
; support_material_interface_extruder = 1
; support_material_interface_extrusion_width = 0
; support_material_interface_layers = 3
; support_material_interface_spacing = 0
; support_material_interface_speed = 100%
; support_material_max_layers = 0
; support_material_pattern = pillars
; support_material_pillar_size = 2.5
; support_material_pillar_spacing = 10
; support_material_spacing = 2.5
; support_material_speed = 60
; support_material_threshold = 60%
; xy_size_compensation = 0
; bottom_infill_pattern = rectilinear
; bottom_solid_layers = 3
; bridge_flow_ratio = 1
; bridge_speed = 60
; external_perimeter_extrusion_width = 0
; external_perimeter_speed = 50%
; external_perimeters_first = 0
; extra_perimeters = 1
; fill_angle = 45
; fill_density = 20%
; fill_gaps = 1
; fill_pattern = stars
; gap_fill_speed = 20
; infill_every_layers = 1
; infill_extruder = 1
; infill_extrusion_width = 0
; infill_overlap = 55%
; infill_speed = 80
; min_shell_thickness = 0
; min_top_bottom_shell_thickness = 0
; overhangs = 1
; perimeter_extruder = 1
; perimeter_extrusion_width = 0
; perimeter_speed = 60
; perimeters = 3
; small_perimeter_speed = 15
; solid_infill_below_area = 70
; solid_infill_every_layers = 0
; solid_infill_extruder = 1
; solid_infill_extrusion_width = 0
; solid_infill_speed = 20
; thin_walls = 1
; top_infill_extrusion_width = 0
; top_infill_pattern = rectilinear
; top_solid_infill_speed = 15
; top_solid_layers = 3
